X:1
T:Final time in A
L:1/8
Q:1/4=160
M:6/8
K:A
"A"A c2 d c2 B |"A"A A3 A2 c |"A"A e2"D" eD f2 f |"A"A e3- e2 z :|
"D"D f2 f f2 c |"Bm"B d3 d2 d |"E"E e2 e e2 B |"E"E c3- c z2 |
"A" A3 Bcd |"A" c3 e3 |"D" B2 d"E" c2 B |"A" A2 F E2 z |
"A" A3 Bcd |"A"c3 e3 |"D" B2 d"E" c2 B |"A" A3- A z2 |
